X:1
T:Won’t You Step Within?
T:Won’t You Step Within?
T:J. G. Henderson
T:Anna M. Mondy, 1914
T:Public Domain Courtesy of the Cyber Hymnal™
T:Public Domain Courtesy of the Cyber Hymnal™
C:J. G. Henderson
Z:Public Domain
Z:Courtesy of the Cyber Hymnal™
%%score ( 1 2 ) ( 3 4 )
L:1/8
Q:1/4=104
M:6/8
K:A
V:1 treble 
V:2 treble 
V:3 bass 
V:4 bass 
V:1
 [Ec]2 [Ec] [DB]2 [CA] | [Ec] [CA-]2 [EA]3 | [DF]2 [EG] [FA]2 [EB] | [Ec]6 | %4
w: 1.~Hear the voice of|Je- sus speak-|ing to the soul,|In|
w: 2.~In the ways of|Sa- tan you|so long have trod;|Turn|
w: 3.~Do not long- er|lin- ger on|the verge of woe,|While|
 [Ed]2 [Ec] [DB]2 [CA] | [EA] [EG]2- [EG]3 | [EG]2 [EG] [^DF]2 [DF] | z3 x6 | %8
w: His blood so pre-|cious He *|can make you whole;||
w: your back up- on|him— put *|your trust in God;||
w: the Lord is beck-|oning, glad- *|ly to Him go;||
 [Ec]2 [Ec] [DB]2 [CA] | [EA] [Ec]2- [Ec]3 | [Fd]2 [DF] [FA]2 [FB] | !fermata![Ec]6 | %12
w: He is kind- ly|wait- ing *|for you to come|in,|
w: Christ the might- y|con- queror *|now will help you|win;|
w: He will sure- ly|save you *|from the maze of|sin;|
 [Ae]2 [Ec] [Ed]2 [Ec] | [FB] [DF]2- [DF]3 | E2 [Ec] [DB]2 [DG] | [CA]6 || %16
w: While the fount is|o- pen, *|won’t you step with-|in?|
w: While the fount is|o- pen, *|won’t you step with-|in?|
w: While the fount is|o- pen, *|won’t you step with-|in?|
[M:4/4] [Ec]4- [Ec][DB][CA][DB] | [Ec]6 A2 | F4- [DF][FB][FA][DF] | E6 z2 | e4 [Ee][Ec][Fd][Ec] | %21
w: |||||
w: Won’t * you step with-|in? O|won’t you step with- in?||While the fount is o-|
w: |||||
 B4 F2 z2 | E4- [DE][Cc][EB][DG] | A4 z2 x2 |] %24
w: |||
w: * pen,|won’t you step with- in?||
w: |||
V:2
 x6 | x6 | x6 | x6 | x6 | x6 | x6 | E6 d3 | x6 | x6 | x6 | x6 | x6 | x6 | E2 x4 | x6 ||[M:4/4] x8 | %17
 x8 | D2 D2 x4 | (CEDC E2) x2 | A2 A2 x4 | (FFFF) (DD) x2 | D2 D2 x4 | (C2 D2 C2) x2 |] %24
V:3
 [A,,A,]2 [A,,A,] [A,,A,]2 [A,,A,] | [A,,A,] [A,,A,-]2 [C,A,]3 | [D,A,]2 [D,A,] [D,A,]2 [D,A,] | %3
w: |||
 [A,,A,]6 | [E,B,]2 [E,A,] [E,G,]2 [A,,A,] | [B,,G,] [B,,B,]2- [B,,B,]3 | %6
w: |||
 [B,,B,]2 [B,,B,] [B,,B,]2 [B,,B,] | !fermata![E,G,]6 x3 | [A,,A,]2 [A,,A,] [A,,A,]2 [A,,A,] | %9
w: |||
 [A,,C] [A,,A,]2- [A,,A,]3 | [D,A,]2 [D,A,] [D,A,]2 [D,A,] | !fermata![A,,A,]6 | %12
w: |||
 [A,,C]2 [A,,A,] [A,,A,]2 [A,,A,] | [D,B,] [D,A,]2- [D,A,]3 | [C,A,]2 [A,,A,] [E,G,]2 [E,B,] | %15
w: |||
 [A,,A,]6 ||[M:4/4] [A,,A,]2 [A,,A,]2 [A,,A,][A,,A,][A,,E,][A,,E,] | %17
w: |Won’t you step with- in, O|
 [A,,B,][C,A,][E,G,][E,G,] [A,,A,]2 z2 | [D,A,]2 [D,A,]2 [D,A,][D,A,][D,A,][D,A,] | %19
w: won’t you step with- in?|Won’t you step with- in? O|
 [A,,A,][C,A,][B,,E,][A,,A,] [E,G,]2 z2 | [A,C]2 [A,C]2 [A,C]A,A,A, | %21
w: won’t you step with- in?|While the fount is o- pen,|
 [D,A,][D,A,][D,B,][D,B,] [D,A,][D,A,] z2 | [E,G,]2 [E,G,]2 [E,G,][E,G,][E,G,][E,B,] | %23
w: While the fount is o- pen,|Won’t you step with- in, with-|
 A,2 F,2 E,2 z2 |] %24
w: in, with- in?|
V:4
 x6 | x6 | x6 | x6 | x6 | x6 | x6 | x9 | x6 | x6 | x6 | x6 | x6 | x6 | x6 | x6 ||[M:4/4] x8 | x8 | %18
 x8 | x8 | x5 A,A,A, | x8 | x8 | A,,6 x2 |] %24

